X: 15899
T: Gráinne's
R: jig
M: 6/8
K: Gmajor
dGG GDB,|G,3 DB,D|E3 cAG|F2D cBA|
B2G GFG|E2C CEG|DGc BDF|AGF G3|
dGG GDB,|G,B,G, D2D|E3 cAG|F2D cBA|
B2D GFG|E2G, CEG|DGc BDF|AGF G3|
|:B2A Ggf|eBc ADE|F2A f3|ed^c d2c|
B/c/dB Ggf|ecA DFA|DGc BDF|1 AGF G3:|2 AGF G2D||
GBd g3|edG cBA|B/c/dB a2g|fed def|
gdB Ggf|ecA E3|DGc BDF|AGF G3|
GBd g3|edg cBA|B/c/dB a2g|fed agf|
gdB Ggf|ecA E3|DGc BDF|AGF G2B||

